X: 43
T:St. Anne's Reel
M:4/4
L:1/8
R:Reel
K:D
e2|"D"f2 fg fedB|"D"A2FA DAFA|"G"B2 GB DBGB|"D"ABAG FAde|"D"f2 fg fedB|!
"D"(3ABA FA DAFA|"G"BGBd "A"cAce|"D"d2f2d2:||:ag|"D"fdfa fdfa|"G"aggf g2
 gf|!
"A"edcB ABce|"E"baa^g "A"a2a=g|"D"fdfa fdfa|"G"aggf g2 gf|"A"edcB Aceg|"
D"fd "A"ec "D"d2:||
